X: 238
T:Rakes of Kildare, The
N: page 77
N: heptatonic
R:jig
M:6/8
K:ADor
G|"Am"EAA AGA|Bcd e2f|"G"~g3 ege|dBA "Em"G3|\
"Am"EAA AGA|Bcd e2f|"G"~g3 edB|"Am" A3 A2:|
a|"Am"aea aea|aga b2a|"G"~g3 ege|dBA G2a|\
"A"aea aea|aga b2a|"G"~g3 edB| A3 A2 a|
"Am"aea aea|aga b2a|"G"~g3 ege|dBG BAG|\
"Am"EAA AGA|Bcd e2f|"G"~g3 edB|"Am" A3 A2||
